X:1872
T:Bourrée - Derrière chez nous
C:F. Paris
M:3/8
L:1/16
K:C
A2e2d2|e2c2A2|Bcd3e|c2A4|\
A2e2d2|e2c2A2|B2BdcB|A6:|
|:G2G2^F2|E4AE|B2Bcde|c2A4|\
G2G2^F2|E4AE|B2BdcB|A6||


